X: 17139
T: Hellfire Club, The
R: reel
M: 4/4
K: Gmajor
|:GE|DEGA BGG2|ABAG FDD2|dcBA BAGF|E2AG FDEF|
G2GA BGGB|ABAG FDD2|gbaf gfef|dBAB G2:|
|:Bd|g2gf gdBd|e2ed edBd|e2ed edBA|GBdB BAA2|
g2gf gdBd|e2ed edBd|gbaf gfef|dBAB G2:|

